projects/plugins/jetpack/images/products/product-jetpack-social.svg

<svg fill="none" height="128" viewBox="0 0 128 128" width="128" xmlns="http://www.w3.org/2000/svg"><rect fill="#2c3338" height="103.619" rx="12.1905" width="103.619" x="12.1904" y="12.1905"/><path clip-rule="evenodd" d="m74.5118 44.6985v37.4009l-22.0406-6.4563v11.7218h-4.1325v-12.9323l-7.5067-2.199c-2.9041-.8507-4.8901-3.4384-4.8901-6.3718v-4.9257c0-2.9334 1.986-5.5211 4.8901-6.3718zm-4.1325 32.0163-17.9081-5.2458v-16.1401l17.9081-5.2458zm-22.0406-20.1753v13.7189l-6.3083-1.8479c-1.1616-.3402-1.956-1.3753-1.956-2.5487v-4.9257c0-1.1734.7944-2.2085 1.956-2.5487zm31.6831 8.859h11.02v-3.9947h-11.02zm11.019 11.316-11.02-2.6632v-3.9948l11.02 2.6632zm-11.019-19.9725 11.02-2.6632v-3.9947l-11.02 2.6631z" fill="#fff" fill-rule="evenodd"/></svg>

<svg width="128" height="128" viewBox="0 0 128 128" fill="none" xmlns="http://www.w3.org/2000/svg">
<rect x="12.1904" y="12.1905" width="103.619" height="103.619" rx="12.1905" fill="#2C3338"/>
<g style="mix-blend-mode:screen">
<path fill-rule="evenodd" clip-rule="evenodd" d="M74.5118 44.6985V82.0994L52.4712 75.6431V87.3649H48.3387L48.3387 74.4326L40.832 72.2336C37.9279 71.3829 35.9419 68.7952 35.9419 65.8618V60.9361C35.9419 58.0027 37.9279 55.415 40.832 54.5643L74.5118 44.6985ZM70.3793 76.7148L52.4712 71.469L52.4712 55.3289L70.3793 50.0831V76.7148ZM48.3387 56.5395L48.3387 70.2584L42.0304 68.4105C40.8688 68.0703 40.0744 67.0352 40.0744 65.8618V60.9361C40.0744 59.7627 40.8688 58.7276 42.0304 58.3874L48.3387 56.5395ZM80.0218 65.3985H91.0418V61.4038H80.0218V65.3985ZM91.0408 76.7145L80.0208 74.0513V70.0565L91.0408 72.7197V76.7145ZM80.0218 56.742L91.0418 54.0788V50.0841L80.0218 52.7472V56.742Z" fill="white"/>
</g>
</svg>
